X: 1
T: The Mist On The Mountain
C:Junior Crehan
R: jig
M: 6/8
L: 1/8
K: Ador
G|"Am"EAA ABd|e2 A AGE|"G"~G3 GAB|dBA GED|
"Am"EAA ABd|e2A AGE|"G"efg dBG|BAG "Am"A2:|
a|"Am"age a2b|age edB|"G"AGE G2A|BAB GED|
"Am"age a2b|age edB|"G"AGE G2A|BAG "Am"A3|
"Am"age a2b|age edB|"G"AGE G2A|BAB GED|
"Am"EDE G2A|BAG ABd|"G"efg dBG|BAG "Am"A2|]

#include "RightHeader.h"
%%footer 04/03/16 For use only by Roaring Jelly members
%%text Set 126 2016 NEFFA Jigs, continued
%%scale .85
$SmallLMargin
$SmallRMargin
